flaticon/technology/joystick-2.svg

<svg xmlns="http://www.w3.org/2000/svg" width="32" height="32" viewBox="0 0 24 24">
    <path d="M 15.660156 5.367188 C 15.660156 4.480469 16.378906 3.757812 17.265625 3.757812 C 17.488281 3.757812 17.667969 3.578125 17.667969 3.355469 C 17.667969 3.136719 17.488281 2.953125 17.265625 2.953125 C 15.9375 2.953125 14.855469 4.035156 14.855469 5.367188 C 14.855469 5.589844 15.035156 5.769531 15.257812 5.769531 C 15.480469 5.769531 15.660156 5.589844 15.660156 5.367188 Z M 15.660156 5.367188"/>
    <path d="M 23.988281 19.773438 L 23.464844 18.242188 C 23.289062 17.300781 22.476562 16.621094 21.519531 16.621094 L 21.101562 16.621094 C 20.851562 15.925781 20.296875 15.382812 19.609375 15.148438 C 19.476562 14.167969 18.644531 13.40625 17.628906 13.40625 L 16.410156 13.40625 L 17.464844 10.1875 C 19.996094 10.167969 22.050781 8.105469 22.050781 5.566406 C 22.050781 3.019531 19.976562 0.945312 17.425781 0.945312 C 14.878906 0.945312 12.804688 3.019531 12.804688 5.566406 C 12.804688 7.132812 13.585938 8.515625 14.78125 9.351562 L 13.449219 13.40625 L 11.597656 13.40625 C 10.582031 13.40625 9.746094 14.167969 9.617188 15.148438 C 8.929688 15.382812 8.375 15.925781 8.125 16.621094 L 7.136719 16.621094 C 6.949219 15.707031 6.136719 15.015625 5.167969 15.015625 L 4.363281 15.015625 C 3.390625 15.015625 2.574219 15.710938 2.390625 16.632812 C 1.472656 16.671875 0.703125 17.332031 0.535156 18.242188 L 0.0273438 19.707031 L 0.0117188 19.773438 C -0.0234375 19.976562 0.03125 20.1875 0.160156 20.351562 C 0.292969 20.523438 0.492188 20.625 0.734375 20.644531 L 4.0625 20.644531 C 4.246094 21.558594 5.058594 22.25 6.03125 22.25 L 10.050781 22.25 C 10.492188 22.25 10.855469 22.613281 10.855469 23.054688 L 11.65625 23.054688 C 11.65625 22.167969 10.9375 21.445312 10.050781 21.445312 L 6.03125 21.445312 C 5.507812 21.445312 5.066406 21.109375 4.898438 20.644531 L 23.277344 20.644531 L 23.292969 20.640625 C 23.507812 20.625 23.707031 20.523438 23.839844 20.351562 C 23.96875 20.1875 24.023438 19.976562 23.988281 19.773438 Z M 13.609375 5.566406 C 13.609375 3.460938 15.320312 1.75 17.425781 1.75 C 19.53125 1.75 21.246094 3.460938 21.246094 5.566406 C 21.246094 7.671875 19.53125 9.386719 17.425781 9.386719 C 17.367188 9.386719 17.308594 9.382812 17.25 9.378906 L 17.203125 9.375 C 16.585938 9.339844 16.007812 9.160156 15.476562 8.847656 C 14.359375 8.179688 13.609375 6.960938 13.609375 5.566406 Z M 15.492188 9.761719 C 15.492188 9.761719 15.496094 9.761719 15.5 9.765625 C 15.859375 9.929688 16.242188 10.050781 16.644531 10.121094 L 15.566406 13.40625 L 14.296875 13.40625 Z M 11.597656 14.210938 L 17.628906 14.210938 C 18.160156 14.210938 18.609375 14.554688 18.773438 15.015625 L 10.460938 15.015625 C 10.625 14.546875 11.074219 14.210938 11.597656 14.210938 Z M 10.105469 15.847656 C 10.203125 15.832031 10.296875 15.820312 10.390625 15.820312 L 18.832031 15.820312 C 18.929688 15.820312 19.023438 15.832031 19.117188 15.847656 C 19.148438 15.851562 19.175781 15.859375 19.203125 15.863281 L 19.304688 15.894531 C 19.691406 16.011719 20.023438 16.273438 20.226562 16.621094 L 9 16.621094 C 9.234375 16.21875 9.640625 15.933594 10.105469 15.847656 Z M 4.363281 15.820312 L 5.167969 15.820312 C 5.691406 15.820312 6.136719 16.15625 6.304688 16.621094 L 3.226562 16.621094 C 3.390625 16.15625 3.839844 15.820312 4.363281 15.820312 Z M 4.824219 19.839844 L 4.824219 19.035156 L 4.019531 19.035156 L 4.019531 19.839844 L 0.832031 19.839844 L 1.304688 18.476562 L 1.324219 18.410156 C 1.417969 17.839844 1.90625 17.425781 2.484375 17.425781 L 21.515625 17.425781 C 22.09375 17.425781 22.582031 17.839844 22.675781 18.410156 L 23.167969 19.839844 C 23.167969 19.839844 4.824219 19.839844 4.824219 19.839844 Z M 4.824219 19.839844"/>
</svg>

<svg xmlns="http://www.w3.org/2000/svg" width="32" height="32" viewBox="0 0 24 24">
    <path d="M15.66 5.367c0-.887.719-1.61 1.606-1.61a.402.402 0 1 0 0-.804 2.415 2.415 0 0 0-2.41 2.414.402.402 0 1 0 .804 0zm0 0"/>
    <path d="M23.988 19.773l-.523-1.53a1.977 1.977 0 0 0-1.945-1.622h-.418a2.425 2.425 0 0 0-1.493-1.473 2.005 2.005 0 0 0-1.98-1.742H16.41l1.055-3.219a4.626 4.626 0 0 0 4.586-4.62A4.629 4.629 0 0 0 17.426.944a4.628 4.628 0 0 0-4.621 4.621 4.61 4.61 0 0 0 1.976 3.786l-1.332 4.054h-1.851a2.002 2.002 0 0 0-1.98 1.742 2.425 2.425 0 0 0-1.493 1.473h-.988a2.015 2.015 0 0 0-1.969-1.605h-.805c-.972 0-1.789.695-1.972 1.617-.918.039-1.688.699-1.856 1.61l-.508 1.464-.015.066a.736.736 0 0 0 .148.579.781.781 0 0 0 .574.293h3.329A2.008 2.008 0 0 0 6.03 22.25h4.02c.441 0 .804.363.804.805h.801c0-.887-.719-1.61-1.605-1.61H6.03c-.523 0-.965-.336-1.133-.8h18.38l.015-.004a.756.756 0 0 0 .547-.29.736.736 0 0 0 .148-.578zM13.61 5.566a3.82 3.82 0 0 1 3.817-3.816c2.105 0 3.82 1.71 3.82 3.816a3.826 3.826 0 0 1-3.82 3.82c-.059 0-.117-.003-.176-.007l-.047-.004a3.796 3.796 0 0 1-1.726-.527 3.82 3.82 0 0 1-1.868-3.282zm1.883 4.196s.004 0 .008.004a4.7 4.7 0 0 0 1.145.355l-1.079 3.285h-1.27zm-3.894 4.449h6.03c.532 0 .981.344 1.145.805h-8.312a1.206 1.206 0 0 1 1.137-.805zm-1.493 1.637c.098-.016.192-.028.286-.028h8.441c.098 0 .191.012.285.028.031.004.059.011.086.015l.102.032c.386.117.718.378.922.726H9c.234-.402.64-.687 1.105-.773zm-5.742-.028h.805c.523 0 .969.336 1.137.801H3.227c.164-.465.613-.8 1.136-.8zm.461 4.02v-.805H4.02v.805H.832l.473-1.363.02-.067c.093-.57.581-.984 1.16-.984h19.03c.579 0 1.067.414 1.16.984l.493 1.43H4.824zm0 0"/>
</svg>
